X: 291	% 79
T: Chicken And Dumpling
S: Viola Ruth "Pioneer Western Folk Tunes" 1948 p.29 #1
N: Handwritten "Quadrille" below the title.
R: reel
Z: 2019 John Chambers <jc:trillian.mit.edu>
M: 2/4
L: 1/16
K: G
V: 1 name="79"
[|\
d3g gfga | b2bc' bafg |\
a2ab agef | gage dcBc |\
d3g gfga | b2bc' bafg |
abag fdef | g3a g4 ||\
D3[BG] [BG][cG][BG]G | D3[BG] [BG][cG][BG]G |\
E3[cE] [cE][dE][cE]G | E3[cE] [cE][dE][cE]G |
D3[BG] [BG][cG][BG]G | D3[BG] [BG][cG][BG]G |\
ABAG FEDC | DG3 AG3 ||\
D3[BG] [BG][cG][BG]G | D3[BG] [BG][cG][BG]G |
E3[cE] [cE][dE][cE]G | E3[cE] [cE][dE][cE]G |\
D3[BG] [BG][cG][BG]G | D3[BG] [BG][cG][BG]G |\
ABAG FDEF | G3A G4 |]
